www/assets/icons/flashlight_off.svg

<svg width="24" height="24" viewBox="0 0 24 24" xmlns="http://www.w3.org/2000/svg" fill='currentColor'><path d="M18.71 4.69507V1.69507H6.70998V2.86507L8.53998 4.69507H18.71Z"/><path d="M16.71 10.6951L18.71 7.69507V6.69507H10.54L16.71 12.8651V10.6951Z"/><path d="M3.51998 2.50507L2.09998 3.91507L8.70998 10.5251V21.6951H16.71V18.5251L20.49 22.3051L21.9 20.8951L3.51998 2.50507Z"/></svg>

<svg xmlns="http://www.w3.org/2000/svg" width="24" height="24" viewBox="0 0 24 24" fill='currentColor'><path d="M18.71 4.695v-3h-12v1.17l1.83 1.83zm-2 6 2-3v-1h-8.17l6.17 6.17zM3.52 2.505 2.1 3.915l6.61 6.61v11.17h8v-3.17l3.78 3.78 1.41-1.41z"/></svg>
